packages/dnb-ui-lib/assets/icons/redo_medium.svg

<svg width="24" height="24" viewBox="0 0 24 24" fill="none" xmlns="http://www.w3.org/2000/svg">
<path d="M10.375 22C10.7892 22 11.125 21.6642 11.125 21.25C11.125 20.8358 10.7892 20.5 10.375 20.5V22ZM19.75 13.5L19.2197 14.0303C19.5126 14.3232 19.9874 14.3232 20.2803 14.0303L19.75 13.5ZM17.0303 9.71967C16.7374 9.42678 16.2626 9.42678 15.9697 9.71967C15.6768 10.0126 15.6768 10.4874 15.9697 10.7803L17.0303 9.71967ZM23.5303 10.7803C23.8232 10.4874 23.8232 10.0126 23.5303 9.71967C23.2374 9.42678 22.7626 9.42678 22.4697 9.71967L23.5303 10.7803ZM1.75 11.875C1.75 7.11154 5.61154 3.25 10.375 3.25V1.75C4.78312 1.75 0.25 6.28312 0.25 11.875H1.75ZM10.375 3.25C15.1385 3.25 19 7.11154 19 11.875H20.5C20.5 6.28312 15.9669 1.75 10.375 1.75V3.25ZM10.375 20.5C5.61154 20.5 1.75 16.6385 1.75 11.875H0.25C0.25 17.4669 4.78312 22 10.375 22V20.5ZM20.2803 12.9697L17.0303 9.71967L15.9697 10.7803L19.2197 14.0303L20.2803 12.9697ZM20.2803 14.0303L23.5303 10.7803L22.4697 9.71967L19.2197 12.9697L20.2803 14.0303ZM19 11.875V13.5H20.5V11.875H19Z" fill="black"/>
</svg>

<svg width="24" height="24" viewBox="0 0 24 24" fill="none" xmlns="http://www.w3.org/2000/svg"><path d="M10.375 22a.75.75 0 000-1.5V22zm9.375-8.5l-.53.53a.75.75 0 001.06 0l-.53-.53zm-2.72-3.78a.75.75 0 10-1.06 1.06l1.06-1.06zm6.5 1.06a.75.75 0 10-1.06-1.06l1.06 1.06zM1.75 11.875a8.625 8.625 0 018.625-8.625v-1.5C4.783 1.75.25 6.283.25 11.875h1.5zm8.625-8.625A8.625 8.625 0 0119 11.875h1.5c0-5.592-4.533-10.125-10.125-10.125v1.5zm0 17.25a8.625 8.625 0 01-8.625-8.625H.25C.25 17.467 4.783 22 10.375 22v-1.5zm9.905-7.53l-3.25-3.25-1.06 1.06 3.25 3.25 1.06-1.06zm0 1.06l3.25-3.25-1.06-1.06-3.25 3.25 1.06 1.06zM19 11.875V13.5h1.5v-1.625H19z" fill="#000"/></svg>
